static/assets/img/icons/theme/code/lock-overturning.svg

<svg height="24" viewBox="0 0 24 24" width="24" xmlns="http://www.w3.org/2000/svg"><g fill="none" fill-rule="evenodd"><path d="m0 0h24v24h-24z" opacity="0"/><g fill="#000"><path d="m7.38979581 2.8349582c1.26237154-.53752514 2.65155329-.8349582 4.11020419-.8349582 5.7989899 0 10.5 4.70101013 10.5 10.5 0 5.7989899-4.7010101 10.5-10.5 10.5-5.79898987 0-10.5-4.7010101-10.5-10.5 0-.9848676.13559454-1.9380655.38913364-2.84194349l1.92567711.54015519c-.20809062.7418523-.31481075 1.5137147-.31481075 2.3017883 0 4.6944204 3.80557963 8.5 8.5 8.5 4.6944204 0 8.5-3.8055796 8.5-8.5 0-4.69442037-3.8055796-8.5-8.5-8.5-.95124 0-1.87763931.15592757-2.75127809.45446326l1.19076117 1.41909391c.06932272.08261555.11007522.18543088.11617692.29310507.0156234.27570006-.19521035.51186441-.4709104.52748784l-4.86697029.27580265c-.04846769.00274658-.09707702-.00157994-.14429774-.01284335-.26860686-.06407-.43441675-.33375789-.37034675-.60236475l1.12850341-4.73113399c.02490295-.10440308.08274085-.19802154.16496194-.26701323.21153733-.17750089.52691513-.14990891.70441603.06162842z" opacity=".3"/><path d="m14.5 11c.5522847 0 1 .4477153 1 1v3c0 .5522847-.4477153 1-1 1h-5c-.55228475 0-1-.4477153-1-1v-3c0-.5522847.44771525-1 1-1v-.5c0-1.38071187 1.1192881-2.5 2.5-2.5s2.5 1.11928813 2.5 2.5zm-2.5-2c-.8284271 0-1.5.67157288-1.5 1.5v.5h3v-.5c0-.82842712-.6715729-1.5-1.5-1.5z"/></g></g></svg>

<svg width="24px" height="24px" viewBox="0 0 24 24" version="1.1" xmlns="http://www.w3.org/2000/svg" xmlns:xlink="http://www.w3.org/1999/xlink">
    <title>Icon For Lock-overturning</title>
    <g stroke="none" stroke-width="1" fill="none" fill-rule="evenodd">
        <rect opacity="0" x="0" y="0" width="24" height="24"></rect>
        <path d="M7.38979581,2.8349582 C8.65216735,2.29743306 10.0413491,2 11.5,2 C17.2989899,2 22,6.70101013 22,12.5 C22,18.2989899 17.2989899,23 11.5,23 C5.70101013,23 1,18.2989899 1,12.5 C1,11.5151324 1.13559454,10.5619345 1.38913364,9.65805651 L3.31481075,10.1982117 C3.10672013,10.940064 3,11.7119264 3,12.5 C3,17.1944204 6.80557963,21 11.5,21 C16.1944204,21 20,17.1944204 20,12.5 C20,7.80557963 16.1944204,4 11.5,4 C10.54876,4 9.62236069,4.15592757 8.74872191,4.45446326 L9.93948308,5.87355717 C10.0088058,5.95617272 10.0495583,6.05898805 10.05566,6.16666224 C10.0712834,6.4423623 9.86044965,6.67852665 9.5847496,6.69415008 L4.71777931,6.96995273 C4.66931162,6.97269931 4.62070229,6.96837279 4.57348157,6.95710938 C4.30487471,6.89303938 4.13906482,6.62335149 4.20313482,6.35474463 L5.33163823,1.62361064 C5.35654118,1.51920756 5.41437908,1.4255891 5.49660017,1.35659741 C5.7081375,1.17909652 6.0235153,1.2066885 6.2010162,1.41822583 L7.38979581,2.8349582 Z" fill="#000000" opacity="0.3"></path>
        <path d="M14.5,11 C15.0522847,11 15.5,11.4477153 15.5,12 L15.5,15 C15.5,15.5522847 15.0522847,16 14.5,16 L9.5,16 C8.94771525,16 8.5,15.5522847 8.5,15 L8.5,12 C8.5,11.4477153 8.94771525,11 9.5,11 L9.5,10.5 C9.5,9.11928813 10.6192881,8 12,8 C13.3807119,8 14.5,9.11928813 14.5,10.5 L14.5,11 Z M12,9 C11.1715729,9 10.5,9.67157288 10.5,10.5 L10.5,11 L13.5,11 L13.5,10.5 C13.5,9.67157288 12.8284271,9 12,9 Z" fill="#000000"></path>
    </g>
</svg>
